!!!COM:	Bach, Johann Sebastian
!!!CDT:	1685/02/21/-1750/07/28/
!!!OTL@@DE:	Puer natus in Bethlehem
!!!SCT:	BWV 65/2
!!!PC#:	12
!!!AGN:	chorale
**kern	**kern	**kern	**kern
*ICvox	*ICvox	*ICvox	*ICvox
*Ibass	*Itenor	*Ialto	*Isoprn
*I"Bass	*I"Tenor	*I"Alto	*I"Soprano
*clefF4	*clefGv2	*clefG2	*clefG2
*k[]	*k[]	*k[]	*k[]
*a:	*a:	*a:	*a:
*M3/4	*M3/4	*M3/4	*M3/4
*MM100	*MM100	*MM100	*MM100
4AA	4c	4e	4a
=1	=1	=1	=1
4A	2c	2e	2a
4G	.	.	.
4F#	4d	4a	4a
=2	=2	=2	=2
4G	2d	2g	2b
4D	.	.	.
4FnX	4d	4g	4b
=3	=3	=3	=3
4E	4c	2g	4cc
4C	4e	.	4b
4F	4c	4f	4a
=4	=4	=4	=4
2.C;	2.c;	2.e;	2.g;
=5	=5	=5	=5
4C	[2.e	2g	2cc
4c	.	.	.
4B	.	4g#	4dd
=6	=6	=6	=6
4A	4e]	2a	2cc
4F#	4d	.	.
4G	4d	4gnX	4b
=7	=7	=7	=7
2C;	2e;	2g;	2cc;
4c	4e	4g	4cc
=8	=8	=8	=8
4A	4e	2a	2cc
4F#	4d	.	.
4D	4d	4f#	4cc
=9	=9	=9	=9
4G	4d	2g	2b
4E	4e	.	.
4C#	4e	[4g	4a
=10	=10	=10	=10
4D	4d	4g]	4a
4D#	4B	4f#	4b
4E	4B	4e	4g#
=11	=11	=11	=11
2AA;	2c;	2e;	2a;
[4F	4A	4d	4a
=12	=12	=12	=12
4F]	4B	4d	2gnX
4E	4c	4e	.
4F#	4A	4d	4a
=13	=13	=13	=13
4G	4G	2d	2b
4F#	4B	.	.
4G#	4d	4fnX	4b
=14	=14	=14	=14
4A	4c	4e	2cc
4D	2d	4f	.
4E	.	[4gnX	4b
=15	=15	=15	=15
4F	2c	4g]	2a
4D#	.	4f#	.
4E	4B	4e	4g#
=16	=16	=16	=16
2AA;	2c#;	2e;	2a;
==	==	==	==
*-	*-	*-	*-
!!!hum2abc: -Q ''
!!!title: @{PC#}. @{OTL@@DE}
!!!YOR1: 371 vierstimmige Choralges&auml;nge von Johann Sebastian Bach, 
!!!YOR2: 4th ed. by Alfred D&ouml;rffel (Leipzig: Breitkopf und H&auml;rtel, 
!!!YOR2: c.1875). 178 pp. Plate "V.A.10".  reprint: J.S. Bach, 371 Four-Part 
!!!YOR4: Chorales (New York: Associated Music Publishers, Inc., c.1940).
!!!SMS: B&H, 4th ed, Alfred D&ouml;rffel, c.1875, plate V.A.10
!!!EED:  Craig Stuart Sapp
!!!EEV:  2009/05/22
